outputs/icons/navigation/caret_sort_round.svg

<svg xmlns="http://www.w3.org/2000/svg" width="1200" height="1200" fill="none"><g fill="#000" clip-path="url(#a)"><path d="m370.644 811.705 180.351 169.19c27.155 25.475 71.025 25.475 98.18 0l180.35-169.19C873.395 770.55 842.06 700 780.09 700H419.388c-61.973 0-92.612 70.55-48.744 111.705M370.644 388.296l180.351-169.189c27.155-25.476 71.025-25.476 98.18 0l180.35 169.189C873.395 429.45 842.06 500 780.09 500H419.388c-61.973 0-92.612-70.55-48.744-111.704"/></g><defs><clipPath id="a"><path fill="#fff" d="M0 0h1200v1200H0z"/></clipPath></defs></svg>

<svg width="1200" height="1200" viewBox="0 0 1200 1200" fill="none" xmlns="http://www.w3.org/2000/svg"><g clip-path="url(#clip0_474_1635)"><path d="M370.644 811.705L550.995 980.895C578.15 1006.37 622.02 1006.37 649.175 980.895L829.525 811.705C873.395 770.55 842.06 700 780.09 700H419.388C357.415 700 326.776 770.55 370.644 811.705Z" fill="black"/><path d="M370.644 388.296L550.995 219.107C578.15 193.631 622.02 193.631 649.175 219.107L829.525 388.296C873.395 429.45 842.06 500 780.09 500H419.388C357.415 500 326.776 429.45 370.644 388.296Z" fill="black"/></g><defs><clipPath id="clip0_474_1635"><path width="24" fill="white" d="M0 0H1200V1200H0V0z"/></clipPath></defs></svg>
